Obsidian/actions/24s/snap-page.svg

<svg height="24" viewBox="0 0 24 24" width="24" xmlns="http://www.w3.org/2000/svg"><path d="m2.8398438 1.0097656c-.28103.04373-.84375.2319707-.84375.9316406v12.1289058c0 .933001 1 .931641 1 .931641h9.9921872c.99921 0 1-.931641 1-.931641.0188-.043009.005-6.9538776 0-9.3300776l-3.9960935-3.7304688h-6.9960937s-.0625301-.01454997-.15625 0z" fill="#bebebe" transform="translate(4 4)"/></svg>

<svg xmlns="http://www.w3.org/2000/svg" width="24" height="24" viewBox="0 0 24 24">
 <defs>
  <style id="current-color-scheme" type="text/css">
   .ColorScheme-Text { color:#bebebe; } .ColorScheme-Highlight { color:#4285f4; }
  </style>
 </defs>
 <path style="fill:currentColor" class="ColorScheme-Text" d="M 2.8398438 1.0097656 C 2.5588138 1.0534956 1.9960938 1.2417363 1.9960938 1.9414062 L 1.9960938 14.070312 C 1.9960938 15.003313 2.9960938 15.001953 2.9960938 15.001953 L 12.988281 15.001953 C 13.987491 15.001953 13.988281 14.070312 13.988281 14.070312 C 14.007081 14.027303 13.993281 7.1164344 13.988281 4.7402344 L 9.9921875 1.0097656 L 2.9960938 1.0097656 C 2.9960938 1.0097656 2.9335637 0.99521563 2.8398438 1.0097656 z" transform="translate(4 4)"/>
</svg>
